X: 1
T: Rock the Cradle Joe
R: Hornpipe, reel
C: arr. T. Traub 8-7-05
M: 4/4
K: D
|: "D" a2 ag fefg|a2 ag fefg|a2 ag fe d2|f4 f2 de|f2 fe d2 de|
"(Bm)" f2 fe d2 ef|"G"gfed "A"cABc| [1 "D"d2 e2 f2 g2 :| [2 "D"d2 d2 c2 B2 |: "A" c2 c2 BABc|"D"dcde f2 f2|
"G"g2 gg ga g2 |"D"f4 f4|"A"c2 c2 BABc|"D"dcde f2 fa|"G"gfed "A"cABc|"D"d4 d4 :|
